X: 1
T: The Trip To Nenagh
R: reel
M: 4/4
L: 1/8
K: Dmix
d2AG FD~D2|A,DFA dcAG|Addc d=fed|c2Gc EcGc|
dcAG FD~D2|A,DFA dcAG|Ad~d2 ADFA|GE^CE EDD2:|
|:d2fd Adfd|geed ^cdec|d2=cA FDDE|FGAB ~=c3B|
Ad~d2 Adfd|^cdef gefg|a2ed ^cdec|d=cAG FDD2:|


Tune 831	Setting 13988

